X:1
T:Title
%%score { ( 1 3 ) | ( 2 4 ) }
L:1/8
M:2/2
K:F
V:1 treble nm="Grand Piano"
V:3 treble 
V:2 bass 
V:4 bass 
V:1
 z4[Q:1/4=108] c3 d | c2 A2 A2 G2 | F2 F2 E2 D2 | C4 F3 G | A4 A3 B | c2 c2 c2 d2 | %6
 c2 A2 [=B,FG]2 [B,F]2 | [CFA]4 [CEA]3 [B,EG] |[M:5/4] [A,CF]6 [G,CE]3 [G,DF] | %9
[M:4/4] [EG]2 [EG]2 [EG]2 [FA]2 | [EG]2 [EG]2 [CE]2 [EG]2 | [Gc]4 [Gc]3 d | e4 e3 d | %13
 c2 c2 [G=B]2 [FA]2 | [EG]2 [EG]2 [Gc]2 [Ad]2 | e4 e3 d | [Ec]6 z2 | c2 c2 c2 AB | c2 d2 c2 A2 | %19
 [CGB]2 [CGB]2 [CFA]2 [CFA]2 |[M:5/4] [=B,FG][B,FG] [B,F]2 [Ec]6 |[M:4/4] c2 c2 c2 AB | %22
 c2 d2 c2 A2 | FFG[FA] [FB]2 [Fc]2 |[M:2/4] [Fd]4 | [Ec]4 | F4 | c3 d |[M:4/4] c2 A2 A2 G2 | %29
 F2 F2 E2 D2 | C4 F3 G | A4 A3 B | c2 c2 c2 d2 | c2 A2 [=B,FG]2 [B,F]2 | [CFA]4 [CEA]3 [B,EG] | %35
[M:5/4] [A,CF]6 [G,CE]3 [G,DF] |[M:4/4] [EG]2 [EG]2 [EG]2 [FA]2 | [EG]2 [EG]2 [CE]2 [EG]2 | %38
 [Gc]4 [Gc]3 d | e4 e3 d | c2 c2 [G=B]2 [FA]2 | [EG]2 [EG]2 [Gc]2 [Ad]2 | e4 e3 d | [Ec]6 z2 | %44
 c2 c2 c2 AB | c2 d2 c2 A2 | [CGB]2 [CGB]2 [CFA]2 [CFA]2 |[M:5/4] [=B,FG][B,FG] [B,F]2 [Ec]6 | %48
[M:4/4] c2 c2 c2 AB | c2 d2 c2 A2 | FFG[FA] [FB]2 [Fc]2 |[M:2/4] [Fd]4 | [Be]4 |[M:3/4] [Af]6 |] %54
V:2
 z4 [F,A,F]3 [F,B,F] | [F,A,F]2 [F,CF]2 [F,CF]2 [F,B,C]2 | [F,A,C]2 [F,A,C]2 [F,C]2 [F,B,]2 | %3
 [F,A,]4 [F,A,C]3 [F,B,C] | [F,CF]4 [F,CF]3 [F,B,F] | [F,A,F]2 [F,A,F]2 [F,A,F]2 [F,B,F]2 | %6
 [F,A,F]2 [F,CF]2 D,2 D,2 | C,4 C,3 C, |[M:5/4] F,6 C,3 C, |[M:4/4] [C,C]2 [C,C]2 [C,C]2 [C,C]2 | %10
 [C,C]2 [C,C]2 [C,G,]2 [C,C]2 | [E,C]4 [E,C]3[K:treble] [G,=B,G] | [CG]4 [CG]3 [G,=B,F] | %13
 [A,CE]2[K:bass] [A,CE]2 [E,C]2 [F,C]2 | [C,C]2 [C,C]2 [E,C]2 [F,C]2 | [G,CG]4 [G,=B,G]3 [G,B,F] | %16
 [G,C]4 z4 | [F,A,F]2 [F,A,F]2 [F,A,F]2 [F,CF][F,B,F] | [F,A,F]2 [F,B,F]2 [F,A,F]2 [F,CF]2 | %19
 E,2 E,2 F,2 F,2 |[M:5/4] D,D, D,2 [C,G,C]6 |[M:4/4] [F,A,F]2 [F,A,F]2 [F,A,F]2 [F,CF][F,B,F] | %22
 [F,A,F]2 [F,B,F]2 [F,A,F]2 [F,CF]2 | [F,A,C][F,A,C][E,A,C][_E,C] [D,B,]2 [C,A,]2 | %24
[M:2/4] [B,,B,]4 | G,2 z2 | [F,A,C]4 | [F,A,F]3 [F,B,F] | %28
[M:4/4] [F,A,F]2 [F,CF]2 [F,CF]2 [F,B,C]2 | [F,A,C]2 [F,A,C]2 [F,C]2 [F,B,]2 | %30
 [F,A,]4 [F,A,C]3 [F,B,C] | [F,CF]4 [F,CF]3 [F,B,F] | [F,A,F]2 [F,A,F]2 [F,A,F]2 [F,B,F]2 | %33
 [F,A,F]2 [F,CF]2 D,2 D,2 | C,4 C,3 C, |[M:5/4] F,6 C,3 C, |[M:4/4] [C,C]2 [C,C]2 [C,C]2 [C,C]2 | %37
 [C,C]2 [C,C]2 [C,G,]2 [C,C]2 | [E,C]4 [E,C]3[K:treble] [G,=B,G] | [CG]4 [CG]3 [G,=B,F] | %40
 [A,CE]2[K:bass] [A,CE]2 [E,C]2 [F,C]2 | [C,C]2 [C,C]2 [E,C]2 [F,C]2 | [G,CG]4 [G,=B,G]3 [G,B,F] | %43
 [G,C]4 z4 | [F,A,F]2 [F,A,F]2 [F,A,F]2 [F,CF][F,B,F] | [F,A,F]2 [F,B,F]2 [F,A,F]2 [F,CF]2 | %46
 E,2 E,2 F,2 F,2 |[M:5/4] D,D, D,2 [C,G,C]6 |[M:4/4] [F,A,F]2 [F,A,F]2 [F,A,F]2 [F,CF][F,B,F] | %49
 [F,A,F]2 [F,B,F]2 [F,A,F]2 [F,CF]2 | [F,A,C][F,A,C][E,A,C][_E,C] [D,B,]2 [C,A,]2 | %51
[M:2/4] [B,,B,]4 | G,2 z2 |[M:3/4] [F,C]6 |] %54
V:3
 x8 | x8 | x8 | x8 | x8 | x8 | x8 | x8 |[M:5/4] x10 |[M:4/4] x8 | x8 | x8 | x8 | x8 | x8 | x8 | %16
 z4 B,2 z2 | x8 | x8 | x8 |[M:5/4] x10 |[M:4/4] x8 | x8 | x8 |[M:2/4] x4 | z2 B,2 | x4 | x4 | %28
[M:4/4] x8 | x8 | x8 | x8 | x8 | x8 | x8 |[M:5/4] x10 |[M:4/4] x8 | x8 | x8 | x8 | x8 | x8 | x8 | %43
 z4 B,2 z2 | x8 | x8 | x8 |[M:5/4] x10 |[M:4/4] x8 | x8 | x8 |[M:2/4] x4 | z2 C2 |[M:3/4] x6 |] %54
V:4
 x8 | x8 | x8 | x8 | x8 | x8 | x8 | x8 |[M:5/4] x10 |[M:4/4] x8 | x8 | x7[K:treble] x | x8 | %13
 x2[K:bass] x6 | x8 | x8 | C,6 z2 | x8 | x8 | x8 |[M:5/4] x10 |[M:4/4] x8 | x8 | x8 |[M:2/4] x4 | %25
 C,4 | x4 | x4 |[M:4/4] x8 | x8 | x8 | x8 | x8 | x8 | x8 |[M:5/4] x10 |[M:4/4] x8 | x8 | %38
 x7[K:treble] x | x8 | x2[K:bass] x6 | x8 | x8 | C,6 z2 | x8 | x8 | x8 |[M:5/4] x10 |[M:4/4] x8 | %49
 x8 | x8 |[M:2/4] x4 | C,4 |[M:3/4] x6 |] %54

